Icons/SVG/brands/instagram.svg

<?xml version="1.0" encoding="UTF-8"?><svg id="Instagram" xmlns="http://www.w3.org/2000/svg" viewBox="0 0 24 24"><path d="m17,9v-1h-1v-1h-1v-1h-6v1h-1v1h-1v1h-1v6h1v1h1v1h1v1h6v-1h1v-1h1v-1h1v-6h-1Zm-1,5h-1v1h-1v1h-4v-1h-1v-1h-1v-4h1v-1h1v-1h4v1h1v1h1v4Z"/><path d="m22,5v-2h-1v-1h-2v-1H5v1h-2v1h-1v2h-1v14h1v2h1v1h2v1h14v-1h2v-1h1v-2h1V5h-1Zm-1,14h-1v1h-1v1H5v-1h-1v-1h-1V5h1v-1h1v-1h14v1h1v1h1v14Z"/><rect x="17" y="5" width="2" height="2"/></svg>

<svg width="24" height="24" viewBox="0 0 24 24" fill="none" xmlns="http://www.w3.org/2000/svg">
<path d="M17 9V8H16V7H15V6H9V7H8V8H7V9H6V15H7V16H8V17H9V18H15V17H16V16H17V15H18V9H17ZM16 14H15V15H14V16H10V15H9V14H8V10H9V9H10V8H14V9H15V10H16V14Z" fill="black"/>
<path d="M22 5V3H21V2H19V1H5V2H3V3H2V5H1V19H2V21H3V22H5V23H19V22H21V21H22V19H23V5H22ZM21 19H20V20H19V21H5V20H4V19H3V5H4V4H5V3H19V4H20V5H21V19Z" fill="black"/>
<path d="M19 5H17V7H19V5Z" fill="black"/>
</svg>
